Simply-Red-Circles/scalable/status/keyboard-brightness.svg

<svg xmlns="http://www.w3.org/2000/svg" width="24" height="24" viewBox="0 0 6.35 6.35"><path style="marker:none" d="M3.01 1.13a.16.16 0 0 0-.16.16v.65c0 .1.07.17.16.17h.33c.09 0 .16-.08.16-.17V1.3a.16.16 0 0 0-.16-.16zm-1.25.27l-.06.03-.28.16a.16.16 0 0 0-.06.22l.32.56c.05.08.15.1.23.06l.28-.16c.07-.04.1-.14.05-.22l-.32-.57a.16.16 0 0 0-.16-.08zm2.83 0a.16.16 0 0 0-.16.08l-.32.57a.16.16 0 0 0 .05.22l.28.16c.08.05.18.02.23-.06l.32-.56a.16.16 0 0 0-.06-.22l-.28-.16a.16.16 0 0 0-.06-.03zm-3.98.87a.16.16 0 0 0-.1.06l-.22.24a.16.16 0 0 0 .02.23l.5.42c.07.06.17.05.23-.02l.21-.25a.16.16 0 0 0-.02-.22l-.5-.42a.16.16 0 0 0-.12-.04zm5.13 0c-.04 0-.09 0-.12.04l-.5.42a.16.16 0 0 0-.02.22l.2.25c.07.07.17.08.24.02l.5-.42a.16.16 0 0 0 .02-.23l-.21-.24a.16.16 0 0 0-.11-.06zm-3.93.56a.34.34 0 0 0-.34.34v1.7c0 .2.15.35.34.35h2.73a.34.34 0 0 0 .34-.34V3.17a.34.34 0 0 0-.34-.34zm.17.51h.34v.34h-.34zm.51 0h.34v.34H2.5zm.51 0h.35v.34H3zm.52 0h.34v.34h-.34zm.5 0h.35v.34h-.34zm-2.04.51h.34v.35h-.34zm.51 0h.34v.35H2.5zm.51 0h.35v.35H3zm.52 0h.34v.35h-.34zm.5 0h.35v.35h-.34zm-1.53.69h1.37v.34H2.49z" color="#bebebe" overflow="visible" fill="#a02c2c" stroke-width=".08"/></svg>

<?xml version="1.0" encoding="UTF-8" standalone="no"?>
<svg
   xmlns:dc="http://purl.org/dc/elements/1.1/"
   xmlns:cc="http://creativecommons.org/ns#"
   xmlns:rdf="http://www.w3.org/1999/02/22-rdf-syntax-ns#"
   xmlns:svg="http://www.w3.org/2000/svg"
   xmlns="http://www.w3.org/2000/svg"
   xmlns:sodipodi="http://sodipodi.sourceforge.net/DTD/sodipodi-0.dtd"
   xmlns:inkscape="http://www.inkscape.org/namespaces/inkscape"
   width="24"
   height="24"
   viewBox="0 0 6.35 6.35"
   version="1.1"
   id="svg4"
   sodipodi:docname="keyboard-brightness.svg"
   inkscape:version="0.92.4 (5da689c313, 2019-01-14)">
  <metadata
     id="metadata10">
    <rdf:RDF>
      <cc:Work
         rdf:about="">
        <dc:format>image/svg+xml</dc:format>
        <dc:type
           rdf:resource="http://purl.org/dc/dcmitype/StillImage" />
        <dc:title></dc:title>
      </cc:Work>
    </rdf:RDF>
  </metadata>
  <defs
     id="defs8" />
  <sodipodi:namedview
     pagecolor="#ffffff"
     bordercolor="#666666"
     borderopacity="1"
     objecttolerance="10"
     gridtolerance="10"
     guidetolerance="10"
     inkscape:pageopacity="0"
     inkscape:pageshadow="2"
     inkscape:window-width="1085"
     inkscape:window-height="480"
     id="namedview6"
     showgrid="false"
     inkscape:zoom="9.8333333"
     inkscape:cx="1.0677966"
     inkscape:cy="12"
     inkscape:window-x="0"
     inkscape:window-y="25"
     inkscape:window-maximized="0"
     inkscape:current-layer="svg4" />
  <path
     style="color:#bebebe;overflow:visible;fill:#a02c2c;marker:none"
     d="M 3.01,1.13 A 0.16,0.16 0 0 0 2.85,1.29 v 0.65 c 0,0.1 0.07,0.17 0.16,0.17 H 3.34 C 3.43,2.11 3.5,2.03 3.5,1.94 V 1.3 A 0.16,0.16 0 0 0 3.34,1.14 Z M 1.76,1.4 1.7,1.43 1.42,1.59 A 0.16,0.16 0 0 0 1.36,1.81 l 0.32,0.56 c 0.05,0.08 0.15,0.1 0.23,0.06 L 2.19,2.27 C 2.26,2.23 2.29,2.13 2.24,2.05 L 1.92,1.48 A 0.16,0.16 0 0 0 1.76,1.4 Z m 2.83,0 A 0.16,0.16 0 0 0 4.43,1.48 L 4.11,2.05 A 0.16,0.16 0 0 0 4.16,2.27 L 4.44,2.43 C 4.52,2.48 4.62,2.45 4.67,2.37 L 4.99,1.81 A 0.16,0.16 0 0 0 4.93,1.59 L 4.65,1.43 A 0.16,0.16 0 0 0 4.59,1.4 Z M 0.61,2.27 A 0.16,0.16 0 0 0 0.51,2.33 L 0.29,2.57 A 0.16,0.16 0 0 0 0.31,2.8 l 0.5,0.42 C 0.88,3.28 0.98,3.27 1.04,3.2 L 1.25,2.95 A 0.16,0.16 0 0 0 1.23,2.73 L 0.73,2.31 A 0.16,0.16 0 0 0 0.61,2.27 Z m 5.13,0 c -0.04,0 -0.09,0 -0.12,0.04 L 5.12,2.73 A 0.16,0.16 0 0 0 5.1,2.95 L 5.3,3.2 C 5.37,3.27 5.47,3.28 5.54,3.22 L 6.04,2.8 A 0.16,0.16 0 0 0 6.06,2.57 L 5.85,2.33 A 0.16,0.16 0 0 0 5.74,2.27 Z M 1.81,2.83 A 0.34,0.34 0 0 0 1.47,3.17 v 1.7 c 0,0.2 0.15,0.35 0.34,0.35 H 4.54 A 0.34,0.34 0 0 0 4.88,4.88 V 3.17 A 0.34,0.34 0 0 0 4.54,2.83 Z M 1.98,3.34 H 2.32 V 3.68 H 1.98 Z m 0.51,0 H 2.83 V 3.68 H 2.5 Z M 3,3.34 H 3.35 V 3.68 H 3 Z m 0.52,0 H 3.86 V 3.68 H 3.52 Z m 0.5,0 H 4.37 V 3.68 H 4.03 Z M 1.98,3.85 H 2.32 V 4.2 H 1.98 Z m 0.51,0 H 2.83 V 4.2 H 2.5 Z M 3,3.85 H 3.35 V 4.2 H 3 Z m 0.52,0 H 3.86 V 4.2 H 3.52 Z m 0.5,0 H 4.37 V 4.2 H 4.03 Z M 2.49,4.54 H 3.86 V 4.88 H 2.49 Z"
     overflow="visible"
     id="path2"
     inkscape:connector-curvature="0" />
</svg>
